X:46
T:Reel du Regiment
C:Joseph Allard
M:2/4
L:1/16
Z:abc by Bruce Osborne - bosborne@kos.net
K:C
Gc|e2ed cBcA|GAGF EGFE|DGBG dGBG|DGBd gagf|!
e2ed cBcA|GAGF EGFE|DGBG dGBG|cedB c2:|!
K:G
|:Bc|d2dc defg|d2dc defg|B2Bc BAGA|BABc BAGA|!
d2dc defg|d2dc defg|abag fdef|g2gf g2:|!
K:C
AB|c2ec gcea|g2ec BcdB|c2ec gcea|g2ec BcdB|!
c2ec gcea|g2ec BcdB|c2ec gcea|g2ec Bcdf||!
